!!!OTL: ICH SCHIESS DEN HIRSCH IM WILDEN FORST
!!!ARE: Europa, Mitteleuropa, Deutschland; Rumaenien, Siebenbuergen
!!!SCT: F0665
!!!YEM: Copyright 1995, estate of Helmut Schaffrath.
**kern
*ICvox
*Ivox
!! Mixed meters:  2/4; 6/8
*M2/4
*k[b-]
*F:
{8a
=1
8.a
16d
8.d
16d
=2
8.d
16d
8.d}
{16A
=3
8.d
16e
8.f
16e
=4
4d
8r}
{8a
=5
8.a
16d
8.d
16d
=6
8.d
16d
8.d}
{16d
=7
8.c
16c
8.a
16g
=8
4f
8.r}
{16a
=9
8.a
16d
8.dd
16b-
=10
8.a
16f
8.d}
{16a
=11
8.a
16d
8.dd
16b-
=12
4a
8r}
{8c
=13
*M6/8
4f
8g
4a
8b-
=14
4dd
8cc
4a}
{8a
=15
4a
8g
4b-
8a
=16
*M2/4
4.d}
{8c
=17
*M6/8
4f
8g
4a
8b-
=18
4dd
8cc
4a}
{8a
=19
4a
8g
4b-
8a
=20
4.f
4r}
==
!!!AGN: Staende -, Jaeger - Lied
!!!ONB: ESAC (Essen Associative Code) Database: FINK
!!!AMT: irregular
!!!AIN: vox
!!!EED: Helmut Schaffrath
!!!EEV: 1.0
*-
